docs/svg/logo_chrome_00.svg

<svg viewBox="0 0 24 24" xmlns="http://www.w3.org/2000/svg"><path d="M12 1.2c3.8 0 7.3 2 9.3 5.2h-9.4c-2.5.1-4.5 1.7-5.2 4l-3-5.3c2-2.5 5-3.9 8.3-3.9zm0 14.6c-2.1 0-3.7-1.7-3.7-3.7C8.3 10 10 8.3 12 8.3c2.1 0 3.7 1.7 3.7 3.7.1 2.1-1.6 3.8-3.7 3.8zm-1.8 6.9c-5.1-.9-9-5.4-9-10.7 0-1.9.5-3.7 1.4-5.3l4.3 7.4c.9 2.1 2.9 3.4 5.1 3.4.4 0 .9-.1 1.3-.2l-3.1 5.4zm1.9.1 4.3-7.4c.8-1 1.2-2.2 1.2-3.4 0-1.5-.6-2.9-1.6-3.9h6.2c.5 1.2.7 2.6.7 3.9-.1 5.9-4.9 10.8-10.8 10.8z"/></svg>

<svg viewBox="0 0 24 24" xmlns="http://www.w3.org/2000/svg"><path d="M12,1.2c3.8,0,7.3,2,9.3,5.2H12c0,0-0.1,0-0.1,0c-2.5,0.1-4.5,1.7-5.2,4l-3-5.3C5.7,2.6,8.7,1.2,12,1.2z M12,15.8  c-2.1,0-3.7-1.7-3.7-3.7C8.3,10,10,8.3,12,8.3c2.1,0,3.7,1.7,3.7,3.7C15.8,14.1,14.1,15.8,12,15.8z M10.2,22.7  C5.1,21.8,1.2,17.3,1.2,12c0-1.9,0.5-3.7,1.4-5.3l4.3,7.4c0.9,2.1,2.9,3.4,5.1,3.4c0.4,0,0.9-0.1,1.3-0.2L10.2,22.7z M12.1,22.8  l4.3-7.4c0.8-1,1.2-2.2,1.2-3.4c0-1.5-0.6-2.9-1.6-3.9h6.2c0.5,1.2,0.7,2.6,0.7,3.9C22.8,17.9,18,22.8,12.1,22.8z"/></svg>
